X:14
T:Lady Mary Ramsays Reel. 2voices. Dix.12
M:C
L:1/8
Q:1/4=120
S:Anon. MS dated 1811, from Dixon collection, Holton le Moor, Lincs.
R:reel
N:Repeat marks added at start
O:England;Lincolnshire;Holton le Moor
Z:vmp.R.Greig 2010 <http://www.village-music-project.org.uk>
K:D
[V:1]|:F|D3B A<FF>B|A<FB>G AFFd|D3B A<FF>G|B<DA>F E/E/E E:|
[V:2]|:z|D,2D,2D,2D,2|F,2G,2F,2D,2|D,2D,2D,2F,2|G,2F,D,A,2A,,:|
[V:1]d/e/|(fd)d>f (ec)c>e|(dB)B>d AFFd/e/|fddf e>cd>A|B>dA>F E/E/E ED/E/|
[V:2]z|D,2D,2A,2A,2|B,2G,2F,2D,2|D,2D,2A,2F,2|G,2D,2A,2A,,2|
[V:1](fd)d>f (ec)c>e|d>fB>d AFFA|.d.f.c.e .B.d.A.B|F>dA>F E/E/E E|]
[V:2]D,2D,2A,2A,2|B,2G,2F,2D,2|D,2A,,2G,,2F,,2|D,,2D,2A,,2A,,|]

